!!!!SEGMENT: pl-kk--kk-i-7--059_buhler-franz--creator-alme-siderum.krn
!!!cenid: 16xx:898
!!!COM: Bühler, Franz
!!!COM-rismid: pe106324
!!!CDT: 1760-1823
!!!CNT: German
!!!OTL: Creator alme siderum
!!!PDT:
!!!AGN: Sacred
!!!SMS-siglum: PL-Kk
!!!SMS-shelfmark: Kk.I.7
!!!SMS-shelfwork: 059 W
!!!SMS-variant:
!!!SMS-altvar:
!!!NIFC-rismid: 300258136
!!!URL-scan: http://repozytorium.nifc.pl/skany/pl-kk-nut--i-7
!!!ONB-nifc: UWAGA: C (skan 0058, s. 109), A (0142, s. 105), T (0219, s.101), B (0305, s.97). Utwór bez tekstu.
**kern	**text	**kern	**kern	**text	**kern	**text
*part4	*part4	*part3	*part2	*part2	*part1	*part1
*staff4	*staff4	*staff3	*staff2	*staff2	*staff1	*staff1
*I"[BASSVS.]	*	*I"[TENOR.]	*I"[ALTVS.]	*	*I"[CANTVS.]	*
*I'[B]	*	*I'[T]	*I'[A]	*	*I'[S]	*
*clefF4	*	*clefC4	*clefC3	*	*clefC1	*
*k[]	*	*k[]	*k[]	*	*k[]	*
*C:	*	*C:	*C:	*	*C:	*
*M3/4	*	*M3/4	*M3/4	*	*M3/4	*
=1	=1	=1	=1	=1	=1	=1
!	!	!	!	!	!LO:TX:t=P:problem:all\middle or right:global	!
!	!	!	!	!	!LO:TX:t=P:problem:metrum 3/4 z kreską ułamkową	!
4C/	.	4c\	4g\	.	4ee\	.
4E\	.	4c\	4g\	.	4cc\	.
4E\	.	4c\	4g\	.	4b\	.
=2	=2	=2	=2	=2	=2	=2
*2\right	*	*	*2\right	*	*2\right	*
2F\	.	8c\L	2f\	.	2a\	.
.	.	8c#X\J	.	.	.	.
*	*	*2\right	*	*	*	*
.	.	2d\	.	.	.	.
4F\	.	.	4a\	.	4dd\	.
=3	=3	=3	=3	=3	=3	=3
2G\	.	2e\	2g\	.	2cc\	.
4G\	.	4d\	(8g\L	.	4b\	.
.	.	.	8f\J)	.	.	.
=4	=4	=4	=4	=4	=4	=4
2C/	.	2cn\	2e\	.	2cc\	.
4r	.	4r	4r	.	4r	.
=5	=5	=5	=5	=5	=5	=5
4B\	.	4d\	4g\	.	4dd\	.
4B\	.	4d\	4g\	.	4gg\	.
4B\	.	4d\	4g\	.	4ff#X\	.
=6	=6	=6	=6	=6	=6	=6
2c\	.	2c\	(4g\	.	2ee\	.
.	.	.	4g#X\)	.	.	.
4c\	.	4e\	4a\	.	(8dd\L	.
.	.	.	.	.	8cc\J)	.
=7	=7	=7	=7	=7	=7	=7
2d\	.	2d\	2gn\	.	2b\	.
4D\	.	(8d\L	4f#X\	.	(8b\L	.
.	.	8c\J)	.	.	8a\J)	.
=8	=8	=8	=8	=8	=8	=8
*	*	*	*^	*	*	*
2G\	.	2B\	2g/	2d\	.	2g\	.
4r	.	4r	4r	4ryy	.	4r	.
*	*	*	*v	*v	*	*	*
=9	=9	=9	=9	=9	=9	=9
4G\	.	4e\	4a\	.	4cc#X\	.
4G\	.	4e\	4a\	.	4cc#\	.
4G\	.	4e\	4a\	.	4cc#\	.
!LO:LB:g=original	!	!LO:LB:g=original	!LO:LB:g=original	!	!LO:LB:g=original	!
=10	=10	=10	=10	=10	=10	=10
2Fn\	.	2d\	2a\	.	2dd\	.
4D\	.	4d\	4a\	.	4ffn\	.
=11	=11	=11	=11	=11	=11	=11
2F\	.	2d\	2g\	.	2b\	.
4F\	.	4B\	4g\	.	4dd\	.
=12	=12	=12	=12	=12	=12	=12
2E\	.	2c\	2g\	.	2cc\	.
4r	.	4r	4r	.	4r	.
=13	=13	=13	=13	=13	=13	=13
4F\	.	4A\	4a\	.	4dd\	.
4E\	.	4c#X\	4a\	.	4ee\	.
(8D\L	.	4d\	4a\	.	(8ff\L	.
8F\J)	.	.	.	.	8dd\J)	.
=14	=14	=14	=14	=14	=14	=14
2G\	.	2e\	2g\	.	2cc\	.
4G\	.	4e\	4g\	.	4cc\	.
=15	=15	=15	=15	=15	=15	=15
2G\	.	2d\	2g\	.	2b\	.
4F\	.	4d\	4g\	.	4b\	.
=16	=16	=16	=16	=16	=16	=16
2E\	.	2c\	2g\	.	2gg\	.
4r	.	4r	4r	.	4r	.
=17	=17	=17	=17	=17	=17	=17
4F\	.	4A\	4a\	.	4dd\	.
4E\	.	4c#X\	4a\	.	4ee\	.
(8D\L	.	4d\	4a\	.	(8ff\L	.
8F\J)	.	.	.	.	8dd\J)	.
!LO:LB:g=original	!	!	!	!	!	!
=18	=18	=18	=18	=18	=18	=18
2G\	.	2e\	2g\	.	2cc\	.
4G\	.	4c\	4g\	.	4ee\	.
!	!	!LO:LB:g=original	!LO:LB:g=original	!	!LO:LB:g=original	!
=19	=19	=19	=19	=19	=19	=19
2G\	.	2B\	2f\	.	2ee\	.
4G\	.	4B\	4f\	.	4dd\	.
=20	=20	=20	=20	=20	=20	=20
2C/	.	2c\	2e\	.	2cc\	.
4r	.	4r	4r	.	4r	.
==21	==21	==21	==21	==21	==21	==21
2.F\	a-	2.c\	2.f\	a-	2.a\	a-
=22	=22	=22	=22	=22	=22	=22
2.C/	-men.	2c\	2.e\	-men.	2.g\	-men.
.	.	4c\	.	.	.	.
!LO:PB:g=original	!	!LO:PB:g=original	!LO:PB:g=original	!	!LO:PB:g=original	!
==	==	==	==	==	==	==
*-	*-	*-	*-	*-	*-	*-
!!!system-decoration: [(s1,s2,s3,s4)]
!!!ENC: Marta Chmielewska
!!!END: 2021-03-17
!!!ENC: Katarzyna Serwa
!!!END: 2021-03-02
